X: 33465
T: Rachel Dafydd Ifan
R: polka
M: 2/4
K: Amajor
cc cc|e/f/e/d/ ce|BB BB|d/e/d/c/ Be/d/|
cc cc|e/f/e/d/ ce|d/e/d/B/ G/B/e/d/|cA A:|
aa ae|e/f/e/d/ ce|aa ae|d/e/d/c/ Bc/e/|
aa ae|e/f/e/d/ ce|d/e/d/B/ G/B/e/d/|cA A:|

